themes/icons/svg/file-manager.svg

<svg xmlns="http://www.w3.org/2000/svg" width="16" height="16" viewBox="0 0 16 16">
<defs>
  <style id="current-color-scheme" type="text/css">
   .ColorScheme-Text { color:#f4f4f7; } .ColorScheme-Highlight { color:#f4f4f7fff; }
  </style>
 </defs>
 <path style="fill:currentColor" class="ColorScheme-Text" d="M14.9334969,6.00039167 C14.9770043,6.18842931 15,6.38432198 15,6.58558559 L15,11.4144144 C15,12.8423939 13.8423939,14 12.4144144,14 L3.58558559,14 C2.1576061,14 1,12.8423939 1,11.4144144 L0.999,6 L14.9334969,6.00039167 Z M6,8 L5,8 L5,11 L6,11 L6,10 L10,10 L10,11 L11,11 L11,8 L10,8 L10,9 L6,9 L6,8 Z M7.38196601,2 C8.0671711,2 8.69356697,2.38713394 9,3 C9.30643303,3.61286606 9.9328289,4 10.618034,4 L12.4144144,4 C13.2449466,4 13.9840184,4.39158836 14.4570713,5.00020659 L0.999,5 L1,4.58558559 C1,3.1576061 2.1576061,2 3.58558559,2 L7.38196601,2 Z"/>
</svg>

<svg xmlns="http://www.w3.org/2000/svg" width="16" height="16"><defs><style id="current-color-scheme" type="text/css">.ColorScheme-Highlight{color:#f4f4f7fff}</style></defs><path style="fill:currentColor;color:#f4f4f7" d="M14.933 6c.044.188.067.384.067.586v4.828A2.586 2.586 0 0 1 12.414 14H3.586A2.586 2.586 0 0 1 1 11.414L.999 6h13.934ZM6 8H5v3h1v-1h4v1h1V8h-1v1H6V8Zm1.382-6C8.067 2 8.694 2.387 9 3c.306.613.933 1 1.618 1h1.796c.83 0 1.57.392 2.043 1H1v-.414A2.586 2.586 0 0 1 3.586 2h3.796Z"/></svg>
